!!!COM: Fux, Johann Joseph
!!!OMD: Gradus ad Parnassum Exercise
!!!YEC: CC0 1.0 Universal (Public Domain). Mark Gotham and FourScoreAndMore.org waive all rights to this document.
**kern	**kern	**kern
*part3	*part2	*part1
*staff3	*staff2	*staff1
*I"3	*I"2	*I"1
*I'Pno	*I'Pno	*I'Pno
!!LO:PB:g=z
*clefF4	*clefG2	*clefG2
*k[]	*k[]	*k[]
!!LO:TX:omd:t=
*M4/4	*M4/4	*M4/4
=331	=331	=331
!	!	!LO:TX:a:t=Fig. 141; Species&colon; 4; Modal final&colon; d; Cantus firmus&colon; 2
1D	1d	2r
.	.	[2a/
=332	=332	=332
1D	1f	2a/]
.	.	[2dd\
=333	=333	=333
1G	1e	2dd\]
.	.	[2cc\
=334	=334	=334
1G	1d	2cc\]
.	.	[2b\
=335	=335	=335
1E	1g	2b\]
.	.	[2ee\
=336	=336	=336
1F	1f	2ee\]
.	.	[2dd\
=337	=337	=337
1F	1a	2dd\]
.	.	[2ff\
=338	=338	=338
1C	1g	2ff\]
.	.	[2ee\
=339	=339	=339
1D	1f	2ee\]
.	.	[2dd\
=340	=340	=340
1A	1e	2dd\]
.	.	2cc#X\
=341	=341	=341
1D	1d	1dd
==	==	==
*-	*-	*-
!!!software: music21 v.9.7.1
!!!software: music21 v.9.7.1
!!!software: MuseScore 3.4.2
!!!RDF**kern: > = above
!!!RDF**kern: < = below
